X: 174
T: Brunetta
T: Pop the Question
%R: reel, march
B: Chas & Sam Thompson "Twenty Four Country Dances for the Year 1780", London 1780, p.87 #2
F: http://www.vwml.org/browse/browse-collections-dance-tune-books/browse-thompsons1780
Z: 2014 John Chambers <jc:trillian.mit.edu> (added dance description)
M: C
L: 1/16
K: G
% - - - - - - - - - - - - - - - - - - - - - - - - - - - - -
|:\
(d2ef) g2d2 d2c2 B4 | .G2(BA) .A2(cA) (dBAG) (GFED) |\
d2(ef) g2d2 d2c2B2e2 | e2d2d2F2 G3A G4 :|
|:\
B4A2G2 c2c2c4 | e2g2f2e2 (e4d4) |\
.g2.a2.b2.a2 .g2.f2.e2.d2 | d2e2d2c2 B4G4 :|
% - - - - - - - - - - Dance description - - - - - - - - - -
%%begintext align
%%   Right hands across half round Left hands back
%% again .|. Lead down the middle up again and cast
%% off :|. Allemande with your Right hand then with
%% your Left .|: Cross over & Right & Left at top :|:
%%endtext

%%sep 1 1 500
%%sep 1 1 500
